src/expand-more.svg

<svg width="24" height="24" viewBox="0 0 24 24" xmlns="http://www.w3.org/2000/svg" xmlns:xlink="http://www.w3.org/1999/xlink">
  <path d="M14 4l2.3 2.3-2.89 2.87 1.42 1.42L17.7 7.7 20 10V4h-6zm-4 16l-2.3-2.3 2.89-2.87-1.42-1.42L6.3 16.3 4 14v6h6z" fill="currentColor"/>
</svg>

<svg width="24" height="24" viewBox="0 0 24 24" xmlns="http://www.w3.org/2000/svg">
<path fill-rule="evenodd" clip-rule="evenodd" d="M14 4L16.3 6.3L13.41 9.17L14.83 10.59L17.7 7.7L20 10V4H14ZM10 20L7.7 17.7L10.59 14.83L9.17 13.41L6.3 16.3L4 14V20H10Z" fill="currentColor"/>
</svg>
